X: 3
T: Blue Bonnets Over the Border
T: Air, Bb
L: 1/16
M: 6/8
K: Bb
|: B,6 B,3C1D2| B1d3c2 B3G1F2| B1G3G2 G4g2| g3f1d2 d3c1d2| B,6 B,3C1D2| B1d3c2 B3G1F2| G6 F1D3F2| G1B3D2 C6:| 
|: B3d1f2 f3d1B2| g3f1d2 c3d1c2| B3d1f2 g3a1b2| B3c1d2 c6|
 B3d1f2 f3d1B2| g3f1d2 d3c1d2| B3A1G2 F1D3F2| G1B3D2 C6:| 
D: Natalie MacMaster, In My Hands, Rounder 11661-7025-2
